resources/haticons/SVG/baby_changing_station.svg

<!-- Generated by IcoMoon.io -->
<svg version="1.1" xmlns="http://www.w3.org/2000/svg" width="24" height="24" viewBox="0 0 24 24">
<title>baby_changing_station</title>
<path d="M14.016 8.016v1.969h-3l-2.719-1.172-1.313 3.938v9.234h-3.984v-9.984l1.594-4.641q0.281-0.844 1.078-1.195t1.641 0.023l4.125 1.828h2.578zM8.016 0.984q-0.844 0-1.43 0.586t-0.586 1.43 0.586 1.43 1.43 0.586q0.797 0 1.383-0.586t0.586-1.43-0.586-1.43-1.383-0.586zM9 18.984h12v-1.969h-12v1.969zM19.5 15.984q0.609 0 1.055-0.422t0.445-1.078q0-0.609-0.445-1.055t-1.055-0.445-1.055 0.445-0.445 1.055q0 0.656 0.445 1.078t1.055 0.422zM12.984 12q0-0.422-0.281-0.703t-0.703-0.281h-3v1.969h2.016v1.031q0 0.797 0.586 1.383t1.383 0.586h2.016q0.844 0 1.43-0.586t0.586-1.383v-3h-2.016v1.969h-2.016v-0.984z"></path>
</svg>

<svg xmlns="http://www.w3.org/2000/svg" width="24" height="24"><path d="M14.016 8.016v1.969h-3L8.297 8.813l-1.313 3.938v9.234H3v-9.984L4.594 7.36q.281-.844 1.078-1.195t1.641.023l4.125 1.828h2.578zm-6-7.032q-.844 0-1.43.586T6 3t.586 1.43 1.43.586q.797 0 1.383-.586T9.985 3t-.586-1.43T8.016.984zm.984 18h12v-1.969H9v1.969zm10.5-3q.609 0 1.055-.422T21 14.484q0-.609-.445-1.055t-1.055-.445-1.055.445T18 14.484q0 .656.445 1.078t1.055.422zM12.984 12q0-.422-.281-.703T12 11.016H9v1.969h2.016v1.031q0 .797.586 1.383t1.383.586h2.016q.844 0 1.43-.586t.586-1.383v-3h-2.016v1.969h-2.016v-.984z"/></svg>
